original/processed/spring.svg

<?xml version="1.0" encoding="UTF-8" standalone="no"?>
<svg
   xmlns:dc="http://purl.org/dc/elements/1.1/"
   xmlns:cc="http://creativecommons.org/ns#"
   xmlns:rdf="http://www.w3.org/1999/02/22-rdf-syntax-ns#"
   xmlns:svg="http://www.w3.org/2000/svg"
   xmlns="http://www.w3.org/2000/svg"
   style="display: block;"
   height="400"
   width="400"
   version="1.1"
   id="svg">
  <metadata
     id="metadata9">
    <rdf:RDF>
      <cc:Work
         rdf:about="">
        <dc:format>image/svg+xml</dc:format>
        <dc:type
           rdf:resource="http://purl.org/dc/dcmitype/StillImage" />
        <dc:title></dc:title>
      </cc:Work>
    </rdf:RDF>
  </metadata>
  <defs
     id="defs7" />
  <g
     transform="matrix(1.4857976,0,0,1.4857976,-96.631312,-101.32898)"
     id="svgg">
    <path
       style="fill:#000000;fill-rule:evenodd;stroke:none"
       d="m 310.293,101.989 c -0.286,1.094 -0.919,1.742 -1.407,1.441 -0.487,-0.302 -0.886,0.379 -0.886,1.511 0,1.132 -0.45,2.059 -1,2.059 -0.55,0 -1,0.675 -1,1.5 0,0.825 -0.702,1.5 -1.559,1.5 -0.857,0 -1.281,0.45 -0.941,1 0.34,0.55 -0.084,1 -0.941,1 -0.857,0 -1.559,0.591 -1.559,1.313 0,1.34 -5.127,6.758 -6.657,7.035 -0.463,0.083 -0.73,0.49 -0.593,0.902 0.137,0.412 -0.452,0.75 -1.309,0.75 -0.857,0 -1.281,0.45 -0.941,1 0.34,0.55 -0.014,1 -0.786,1 -0.772,0 -2.209,0.889 -3.193,1.976 -0.983,1.087 -2.189,1.729 -2.679,1.426 -0.491,-0.303 -0.768,0.025 -0.617,0.728 0.151,0.704 -0.304,1.3 -1.011,1.325 -0.708,0.025 -1.658,0.646 -2.112,1.38 -0.454,0.735 -1.113,1.297 -1.464,1.25 -1.896,-0.253 -2.895,-0.008 -2.317,0.569 1.029,1.029 -15.161,9.563 -16.534,8.714 -0.441,-0.272 -1.071,0.209 -1.401,1.069 -0.357,0.929 -1.797,1.563 -3.552,1.563 -1.713,0 -2.693,0.42 -2.334,1 0.344,0.556 -0.406,1 -1.691,1.001 -1.27,0 -4.756,0.93 -7.747,2.067 -2.991,1.137 -6.254,1.853 -7.252,1.593 -0.997,-0.261 -1.587,-0.109 -1.31,0.338 0.664,1.075 -9.063,2.389 -10.608,1.434 -0.761,-0.47 -0.939,-0.319 -0.487,0.412 0.533,0.863 -7.957,1.202 -33.596,1.343 -42.237,0.231 -43.874,0.299 -44.832,1.848 -0.429,0.696 -1.713,1.005 -2.892,0.696 -1.184,-0.309 -2.744,0.069 -3.531,0.857 -0.776,0.776 -2.165,1.411 -3.087,1.411 -2.004,0 -11.272,4.532 -13.654,6.677 -0.928,0.835 -2.165,1.223 -2.75,0.862 -0.585,-0.361 -1.063,0.045 -1.063,0.902 0,0.857 -0.338,1.506 -0.75,1.441 -1.852,-0.293 -3.324,0.189 -2.863,0.936 0.278,0.45 -0.44,1.462 -1.596,2.25 -1.156,0.788 -2.788,2.196 -3.625,3.131 -0.838,0.934 -1.904,1.463 -2.369,1.175 -0.466,-0.287 -0.723,0.073 -0.572,0.802 0.151,0.728 -0.271,1.217 -0.939,1.086 -0.702,-0.138 -0.973,0.39 -0.643,1.25 0.373,0.973 -0.043,1.488 -1.203,1.488 -0.975,0 -1.5,0.273 -1.167,0.606 0.334,0.334 -0.266,1.544 -1.333,2.689 -1.067,1.145 -1.94,2.699 -1.94,3.453 0,0.753 -0.45,1.092 -1,0.752 -0.55,-0.34 -1.056,-0.141 -1.125,0.441 -0.069,0.582 -0.181,1.525 -0.25,2.095 -0.069,0.571 -0.726,1.408 -1.46,1.862 -0.735,0.454 -1.188,1 -1.008,1.214 0.768,0.909 -2.547,8.765 -3.461,8.2 -0.553,-0.341 -0.731,-0.178 -0.397,0.363 0.334,0.541 -0.059,3.198 -0.874,5.904 -2.431,8.076 -2.861,20.884 -0.97,28.921 0.906,3.85 1.721,7.766 1.81,8.702 0.09,0.937 0.375,1.492 0.633,1.234 0.495,-0.495 3.189,5.014 3.699,7.563 0.164,0.824 1.335,2.328 2.601,3.343 1.266,1.014 3.97,3.377 6.008,5.251 2.039,1.874 4.176,3.407 4.75,3.407 0.574,0 1.044,0.75 1.044,1.667 0,0.916 0.289,1.377 0.642,1.024 0.353,-0.353 1.703,1.352 3,3.788 3.289,6.179 3.092,11.727 -0.642,18.021 -3.84,6.474 -2.843,9.486 1.652,4.991 0.83,-0.83 1.876,-1.283 2.324,-1.006 0.448,0.277 1.072,-0.169 1.388,-0.991 0.315,-0.822 1.487,-1.494 2.605,-1.494 1.117,0 2.031,-0.386 2.031,-0.858 0,-3.224 70.413,-3.28 74.539,-0.058 0.572,0.446 10.922,0.876 23,0.956 27.689,0.182 30.884,0.07 31.294,-1.094 0.184,-0.52 2.659,-0.961 5.5,-0.98 3.286,-0.022 7.866,-1.1 12.58,-2.959 4.077,-1.608 7.859,-2.648 8.405,-2.311 0.545,0.337 0.699,0.141 0.342,-0.437 -0.741,-1.2 2.043,-2.56 3.455,-1.688 0.514,0.318 0.811,0.022 0.66,-0.658 -0.151,-0.68 0.724,-1.501 1.944,-1.824 3.207,-0.851 15.281,-11.087 15.281,-12.955 0,-0.624 0.482,-1.134 1.071,-1.134 1.215,0 3.423,-1.998 3.869,-3.5 0.573,-1.93 2.746,-4.482 3.4,-3.994 0.363,0.272 0.448,0.207 0.19,-0.143 -0.259,-0.351 0.416,-1.883 1.5,-3.404 1.083,-1.522 1.97,-3.486 1.97,-4.363 0,-0.878 0.45,-1.596 1,-1.596 0.55,0 1,-0.585 1,-1.3 0,-0.715 0.535,-1.835 1.19,-2.49 0.654,-0.654 1.28,-1.802 1.389,-2.55 0.11,-0.748 1.655,-5.59 3.433,-10.76 1.867,-5.428 3.452,-12.358 3.751,-16.4 0.284,-3.85 0.928,-7.266 1.43,-7.592 1.146,-0.742 1.09,-47.103 -0.058,-47.858 -0.46,-0.302 -1.112,-4.6 -1.449,-9.55 -0.336,-4.95 -2.03,-15.525 -3.765,-23.5 -1.734,-7.975 -3.305,-16.261 -3.491,-18.413 -0.186,-2.152 -0.875,-4.244 -1.53,-4.649 -0.655,-0.405 -0.915,-1.457 -0.577,-2.337 0.441,-1.149 0.032,-1.601 -1.448,-1.601 -1.217,0 -2.275,0.815 -2.582,1.989 M 81.518,266.24 c -3.325,1.206 -5.518,3.069 -5.518,4.689 0,0.589 -0.338,0.958 -0.75,0.821 -0.412,-0.137 -0.846,0.104 -0.964,0.536 -0.118,0.432 -0.837,1.408 -1.599,2.17 -1.705,1.705 -1.378,14.499 0.399,15.597 0.644,0.398 0.861,1.224 0.483,1.835 -0.384,0.621 -0.046,1.112 0.765,1.112 0.799,0 1.702,0.651 2.008,1.448 1.416,3.691 10.896,6.055 16.843,4.201 4.636,-1.446 11.961,-8.104 11.173,-10.157 -0.314,-0.821 -0.074,-1.492 0.535,-1.492 0.645,0 1.107,-1.877 1.107,-4.5 0,-2.475 -0.45,-4.5 -1,-4.5 -0.55,0 -1,-0.654 -1,-1.453 0,-7.808 -12.974,-13.756 -22.482,-10.307"
       id="path0" />
  </g>
</svg>

<svg id="svg" version="1.1" width="400" height="400" xmlns="http://www.w3.org/2000/svg" xmlns:xlink="http://www.w3.org/1999/xlink" style="display: block;"><g id="svgg"><path id="path0" d="M310.293 101.989 C 310.007 103.083,309.374 103.731,308.886 103.430 C 308.399 103.128,308.000 103.809,308.000 104.941 C 308.000 106.073,307.550 107.000,307.000 107.000 C 306.450 107.000,306.000 107.675,306.000 108.500 C 306.000 109.325,305.298 110.000,304.441 110.000 C 303.584 110.000,303.160 110.450,303.500 111.000 C 303.840 111.550,303.416 112.000,302.559 112.000 C 301.702 112.000,301.000 112.591,301.000 113.313 C 301.000 114.653,295.873 120.071,294.343 120.348 C 293.880 120.431,293.613 120.838,293.750 121.250 C 293.887 121.662,293.298 122.000,292.441 122.000 C 291.584 122.000,291.160 122.450,291.500 123.000 C 291.840 123.550,291.486 124.000,290.714 124.000 C 289.942 124.000,288.505 124.889,287.521 125.976 C 286.538 127.063,285.332 127.705,284.842 127.402 C 284.351 127.099,284.074 127.427,284.225 128.130 C 284.376 128.834,283.921 129.430,283.214 129.455 C 282.506 129.480,281.556 130.101,281.102 130.835 C 280.648 131.570,279.989 132.132,279.638 132.085 C 277.742 131.832,276.743 132.077,277.321 132.654 C 278.350 133.683,262.160 142.217,260.787 141.368 C 260.346 141.096,259.716 141.577,259.386 142.437 C 259.029 143.366,257.589 144.000,255.834 144.000 C 254.121 144.000,253.141 144.420,253.500 145.000 C 253.844 145.556,253.094 146.000,251.809 146.001 C 250.539 146.001,247.053 146.931,244.062 148.068 C 241.071 149.205,237.808 149.921,236.810 149.661 C 235.813 149.400,235.223 149.552,235.500 149.999 C 236.164 151.074,226.437 152.388,224.892 151.433 C 224.131 150.963,223.953 151.114,224.405 151.845 C 224.938 152.708,216.448 153.047,190.809 153.188 C 148.572 153.419,146.935 153.487,145.977 155.036 C 145.548 155.732,144.264 156.041,143.085 155.732 C 141.901 155.423,140.341 155.801,139.554 156.589 C 138.778 157.365,137.389 158.000,136.467 158.000 C 134.463 158.000,125.195 162.532,122.813 164.677 C 121.885 165.512,120.648 165.900,120.063 165.539 C 119.478 165.178,119.000 165.584,119.000 166.441 C 119.000 167.298,118.662 167.947,118.250 167.882 C 116.398 167.589,114.926 168.071,115.387 168.818 C 115.665 169.268,114.947 170.280,113.791 171.068 C 112.635 171.856,111.003 173.264,110.166 174.199 C 109.328 175.133,108.262 175.662,107.797 175.374 C 107.331 175.087,107.074 175.447,107.225 176.176 C 107.376 176.904,106.954 177.393,106.286 177.262 C 105.584 177.124,105.313 177.652,105.643 178.512 C 106.016 179.485,105.600 180.000,104.440 180.000 C 103.465 180.000,102.940 180.273,103.273 180.606 C 103.607 180.940,103.007 182.150,101.940 183.295 C 100.873 184.440,100.000 185.994,100.000 186.748 C 100.000 187.501,99.550 187.840,99.000 187.500 C 98.450 187.160,97.944 187.359,97.875 187.941 C 97.806 188.523,97.694 189.466,97.625 190.036 C 97.556 190.607,96.899 191.444,96.165 191.898 C 95.430 192.352,94.977 192.898,95.157 193.112 C 95.925 194.021,92.610 201.877,91.696 201.312 C 91.143 200.971,90.965 201.134,91.299 201.675 C 91.633 202.216,91.240 204.873,90.425 207.579 C 87.994 215.655,87.564 228.463,89.455 236.500 C 90.361 240.350,91.176 244.266,91.265 245.202 C 91.355 246.139,91.640 246.694,91.898 246.436 C 92.393 245.941,95.087 251.450,95.597 253.999 C 95.761 254.823,96.932 256.327,98.198 257.342 C 99.464 258.356,102.168 260.719,104.206 262.593 C 106.245 264.467,108.382 266.000,108.956 266.000 C 109.530 266.000,110.000 266.750,110.000 267.667 C 110.000 268.583,110.289 269.044,110.642 268.691 C 110.995 268.338,112.345 270.043,113.642 272.479 C 116.931 278.658,116.734 284.206,113.000 290.500 C 109.160 296.974,110.157 299.986,114.652 295.491 C 115.482 294.661,116.528 294.208,116.976 294.485 C 117.424 294.762,118.048 294.316,118.364 293.494 C 118.679 292.672,119.851 292.000,120.969 292.000 C 122.086 292.000,123.000 291.614,123.000 291.142 C 123.000 287.918,193.413 287.862,197.539 291.084 C 198.111 291.530,208.461 291.960,220.539 292.040 C 248.228 292.222,251.423 292.110,251.833 290.946 C 252.017 290.426,254.492 289.985,257.333 289.966 C 260.619 289.944,265.199 288.866,269.913 287.007 C 273.990 285.399,277.772 284.359,278.318 284.696 C 278.863 285.033,279.017 284.837,278.660 284.259 C 277.919 283.059,280.703 281.699,282.115 282.571 C 282.629 282.889,282.926 282.593,282.775 281.913 C 282.624 281.233,283.499 280.412,284.719 280.089 C 287.926 279.238,300.000 269.002,300.000 267.134 C 300.000 266.510,300.482 266.000,301.071 266.000 C 302.286 266.000,304.494 264.002,304.940 262.500 C 305.513 260.570,307.686 258.018,308.340 258.506 C 308.703 258.778,308.788 258.713,308.530 258.363 C 308.271 258.012,308.946 256.480,310.030 254.959 C 311.113 253.437,312.000 251.473,312.000 250.596 C 312.000 249.718,312.450 249.000,313.000 249.000 C 313.550 249.000,314.000 248.415,314.000 247.700 C 314.000 246.985,314.535 245.865,315.190 245.210 C 315.844 244.556,316.470 243.408,316.579 242.660 C 316.689 241.912,318.234 237.070,320.012 231.900 C 321.879 226.472,323.464 219.542,323.763 215.500 C 324.047 211.650,324.691 208.234,325.193 207.908 C 326.339 207.166,326.283 160.805,325.135 160.050 C 324.675 159.748,324.023 155.450,323.686 150.500 C 323.350 145.550,321.656 134.975,319.921 127.000 C 318.187 119.025,316.616 110.739,316.430 108.587 C 316.244 106.435,315.555 104.343,314.900 103.938 C 314.245 103.533,313.985 102.481,314.323 101.601 C 314.764 100.452,314.355 100.000,312.875 100.000 C 311.658 100.000,310.600 100.815,310.293 101.989 M81.518 266.240 C 78.193 267.446,76.000 269.309,76.000 270.929 C 76.000 271.518,75.662 271.887,75.250 271.750 C 74.838 271.613,74.404 271.854,74.286 272.286 C 74.168 272.718,73.449 273.694,72.687 274.456 C 70.982 276.161,71.309 288.955,73.086 290.053 C 73.730 290.451,73.947 291.277,73.569 291.888 C 73.185 292.509,73.523 293.000,74.334 293.000 C 75.133 293.000,76.036 293.651,76.342 294.448 C 77.758 298.139,87.238 300.503,93.185 298.649 C 97.821 297.203,105.146 290.545,104.358 288.492 C 104.044 287.671,104.284 287.000,104.893 287.000 C 105.538 287.000,106.000 285.123,106.000 282.500 C 106.000 280.025,105.550 278.000,105.000 278.000 C 104.450 278.000,104.000 277.346,104.000 276.547 C 104.000 268.739,91.026 262.791,81.518 266.240 " stroke="none" fill="#000000" fill-rule="evenodd"></path></g></svg>
